Simply-Orange-Circles/scalable/apps/distributor-logo-antergos.svg

<svg xmlns="http://www.w3.org/2000/svg" width="48" height="48" viewBox="0 0 12.7 12.7"><path d="M6.34.07a6.29 6.29 0 0 0-6.29 6.3 6.29 6.29 0 0 0 6.3 6.28 6.29 6.29 0 0 0 6.28-6.29A6.29 6.29 0 0 0 6.34.07zM6.32 1l.01.01a5.4 5.4 0 0 1 5.4 5.4 5.4 5.4 0 0 1-5.4 5.41 5.4 5.4 0 0 1-5.41-5.4A5.4 5.4 0 0 1 6.32 1z" fill="#ff7f2a"/><path d="M6.1 3.31a.06.06 0 0 0-.03.02 8.55 8.55 0 0 1-3.31 1.99.06.06 0 0 0-.04.02c-.17.31-.29.77-.33 1.25-.04.47 0 .97.1 1.36a.06.06 0 0 0 .1.03c.81-.67 2.68-1.48 3.9-4.6a.06.06 0 0 0-.05-.07H6.1zm1 .11a.06.06 0 0 0-.05.05c-.6 2.55-1.3 4.99-2.98 6.54a.06.06 0 0 0 0 .08c.66.62 1.62.71 2.7.57a.06.06 0 0 0 .05-.03c1.21-2.86 1.12-5.42.34-7.17a.06.06 0 0 0-.06-.04zm1 .45a.06.06 0 0 0-.04.08c.9 1.7 1.04 3.5 1.1 5.21a.06.06 0 0 0 .1.02c.26-.8.57-1.63.52-2.5-.05-.89-.47-1.81-1.64-2.8a.06.06 0 0 0-.04-.01z" fill="#ff7f2a"/></svg>

<?xml version="1.0" encoding="UTF-8" standalone="no"?>
<svg
   xmlns:dc="http://purl.org/dc/elements/1.1/"
   xmlns:cc="http://creativecommons.org/ns#"
   xmlns:rdf="http://www.w3.org/1999/02/22-rdf-syntax-ns#"
   xmlns:svg="http://www.w3.org/2000/svg"
   xmlns="http://www.w3.org/2000/svg"
   xmlns:sodipodi="http://sodipodi.sourceforge.net/DTD/sodipodi-0.dtd"
   xmlns:inkscape="http://www.inkscape.org/namespaces/inkscape"
   width="48"
   height="48"
   viewBox="0 0 12.7 12.7"
   version="1.1"
   id="svg6"
   sodipodi:docname="distributor-logo-antergos.svg"
   inkscape:version="0.92.4 (5da689c313, 2019-01-14)">
  <metadata
     id="metadata12">
    <rdf:RDF>
      <cc:Work
         rdf:about="">
        <dc:format>image/svg+xml</dc:format>
        <dc:type
           rdf:resource="http://purl.org/dc/dcmitype/StillImage" />
        <dc:title></dc:title>
      </cc:Work>
    </rdf:RDF>
  </metadata>
  <defs
     id="defs10" />
  <sodipodi:namedview
     pagecolor="#ffffff"
     bordercolor="#666666"
     borderopacity="1"
     objecttolerance="10"
     gridtolerance="10"
     guidetolerance="10"
     inkscape:pageopacity="0"
     inkscape:pageshadow="2"
     inkscape:window-width="1087"
     inkscape:window-height="480"
     id="namedview8"
     showgrid="false"
     inkscape:zoom="4.9166667"
     inkscape:cx="2.1355932"
     inkscape:cy="24"
     inkscape:window-x="0"
     inkscape:window-y="25"
     inkscape:window-maximized="0"
     inkscape:current-layer="svg6" />
  <path
     d="M 6.34,0.07 A 6.29,6.29 0 0 0 0.05,6.37 6.29,6.29 0 0 0 6.35,12.65 6.29,6.29 0 0 0 12.63,6.36 6.29,6.29 0 0 0 6.34,0.07 Z M 6.32,1 6.33,1.01 a 5.4,5.4 0 0 1 5.4,5.4 5.4,5.4 0 0 1 -5.4,5.41 A 5.4,5.4 0 0 1 0.92,6.42 5.4,5.4 0 0 1 6.32,1 Z"
     id="path2"
     inkscape:connector-curvature="0"
     style="fill:#ff7f2a" />
  <path
     d="M 6.1,3.31 A 0.06,0.06 0 0 0 6.07,3.33 8.55,8.55 0 0 1 2.76,5.32 0.06,0.06 0 0 0 2.72,5.34 C 2.55,5.65 2.43,6.11 2.39,6.59 c -0.04,0.47 0,0.97 0.1,1.36 a 0.06,0.06 0 0 0 0.1,0.03 C 3.4,7.31 5.27,6.5 6.49,3.38 A 0.06,0.06 0 0 0 6.44,3.31 Z m 1,0.11 A 0.06,0.06 0 0 0 7.05,3.47 c -0.6,2.55 -1.3,4.99 -2.98,6.54 a 0.06,0.06 0 0 0 0,0.08 c 0.66,0.62 1.62,0.71 2.7,0.57 A 0.06,0.06 0 0 0 6.82,10.63 C 8.03,7.77 7.94,5.21 7.16,3.46 A 0.06,0.06 0 0 0 7.1,3.42 Z m 1,0.45 A 0.06,0.06 0 0 0 8.06,3.95 c 0.9,1.7 1.04,3.5 1.1,5.21 a 0.06,0.06 0 0 0 0.1,0.02 C 9.52,8.38 9.83,7.55 9.78,6.68 9.73,5.79 9.31,4.87 8.14,3.88 A 0.06,0.06 0 0 0 8.1,3.87 Z"
     id="path4"
     inkscape:connector-curvature="0"
     style="fill:#ff7f2a" />
</svg>
